assets/icons/star-stroke-24.svg

<svg width="24" height="24" viewBox="0 0 24 24" fill="none" xmlns="http://www.w3.org/2000/svg">
<path fill-rule="evenodd" clip-rule="evenodd" d="M9.34802 4.03384C11.3064 4.72709 12.7833 5.82255 13.1342 6.17882L13.2003 6.24594L13.2778 6.29952C13.3819 6.37156 13.6314 6.52276 13.9798 6.4987C14.1348 6.488 14.267 6.44254 14.3597 6.40034C15.0567 6.17336 16.8672 5.70804 18.8618 6.27859C18.5197 8.32858 18.0841 9.982 17.8755 10.5503C17.8183 10.6636 17.7583 10.8299 17.7578 11.0359C17.7569 11.3715 17.9139 11.6025 17.9663 11.6767L17.9813 11.698L17.9975 11.7185C18.4271 12.2637 19.3891 13.5624 19.9483 15.6234C17.7555 15.8435 15.1572 15.8443 14.4486 15.8443H13.9295L13.6307 16.2688C13.0983 17.0256 11.8579 18.4125 10.0035 19.9478C8.68901 18.2978 8.38947 16.5897 8.2484 15.7853C8.23264 15.6954 8.21887 15.6169 8.20587 15.5509L8.09392 14.9826L7.54527 14.797C7.43175 14.7586 7.21034 14.6613 6.98507 14.5469C6.87752 14.4923 6.78476 14.4418 6.71843 14.4025C6.70485 14.3945 6.69364 14.3876 6.68461 14.382L6.64647 14.3433L6.54096 14.279C6.44265 14.2191 6.33511 14.1548 6.21975 14.0857C5.63155 13.7336 4.84007 13.2597 4.03087 12.639C4.98719 10.9177 6.4329 9.96945 7.27833 9.4149C7.36388 9.35878 7.44329 9.30669 7.51543 9.25824C7.57615 9.22201 7.67265 9.15886 7.76654 9.06571C7.9059 8.92746 7.98821 8.77712 8.03879 8.64438L8.07476 8.54999L8.09112 8.45031C8.10296 8.37818 8.11565 8.29607 8.12973 8.20492C8.2615 7.35178 8.5157 5.7061 9.34802 4.03384ZM6.65835 14.3651C6.6512 14.3602 6.65222 14.3605 6.6591 14.3656C6.65884 14.3654 6.65859 14.3652 6.65835 14.3651ZM8.55082 2.15735C8.87137 2.02176 9.34525 1.92028 9.83283 2.08528C11.7171 2.7229 13.283 3.71153 14.1184 4.3844C15.1842 4.08629 17.2637 3.70013 19.5559 4.39822L19.5705 4.40269L19.5851 4.4076C20.2114 4.61957 21.1079 5.3628 20.8479 6.5275C20.5459 8.35831 20.1562 9.97852 19.8729 10.8818C20.4563 11.6825 21.3523 13.115 21.8985 15.174C22.0346 15.5211 22.0138 15.8512 21.9512 16.1055C21.8942 16.337 21.7903 16.5468 21.7369 16.6544C21.7333 16.6618 21.7299 16.6686 21.7268 16.6749C21.4288 17.2799 20.8458 17.577 20.2925 17.5985C18.333 17.805 16.0568 17.838 14.9499 17.8433C14.2089 18.7859 12.949 20.1076 11.2616 21.5027C10.9639 21.7801 10.4953 22 9.99388 22C9.68823 22 9.38243 21.9454 9.08574 21.7733C8.8589 21.6417 8.68054 21.4593 8.58162 21.3581C8.57357 21.3498 8.56605 21.3422 8.55907 21.3351L8.52525 21.3007L8.49488 21.2633C6.98416 19.401 6.51683 17.4357 6.33499 16.455C6.24645 16.4134 6.16 16.371 6.07982 16.3303C5.94657 16.2627 5.81359 16.191 5.69932 16.1234L5.69876 16.123C5.64569 16.0916 5.54203 16.0302 5.43841 15.9494C5.36968 15.9079 5.29387 15.8626 5.2118 15.8136C4.58937 15.4416 3.60743 14.8548 2.6319 14.0845L2.58295 14.0458L2.53918 14.0014C2.04016 13.4948 1.75747 12.5146 2.27025 11.6899C3.47721 9.50387 5.33034 8.29392 6.17656 7.74445C6.3227 6.79866 6.65503 4.87181 7.65868 2.944C7.86711 2.53218 8.25426 2.2828 8.55082 2.15735ZM6.49008 7.54099L6.48641 7.54308C6.49363 7.53866 6.49548 7.53792 6.49008 7.54099Z" fill="#F2F2F2"/>
</svg>

<svg xmlns="http://www.w3.org/2000/svg" width="24" height="24" viewBox="0 0 24 24"><path fill-rule="evenodd" d="M9.348 4.034c1.958.693 3.435 1.789 3.786 2.145l.066.067.078.054c.104.072.353.223.702.199a1.11 1.11 0 00.38-.099c.697-.227 2.507-.692 4.502-.121-.342 2.05-.778 3.703-.986 4.271a1.082 1.082 0 00.09 1.127l.015.021.016.02c.43.546 1.392 1.844 1.951 3.905-2.192.22-4.79.221-5.5.221h-.518l-.3.425c-.532.757-1.772 2.144-3.627 3.679-1.314-1.65-1.614-3.358-1.755-4.163-.015-.09-.03-.168-.042-.234l-.112-.568-.549-.186a5.128 5.128 0 01-.56-.25 4.907 4.907 0 01-.3-.165l-.039-.039-.105-.064-.321-.193c-.588-.352-1.38-.826-2.19-1.447.957-1.721 2.403-2.67 3.248-3.224.086-.056.165-.108.237-.157a1.178 1.178 0 00.523-.614l.037-.094.016-.1.039-.245c.131-.853.386-2.499 1.218-4.171zm-2.69 10.331a.103.103 0 01.001 0zM8.551 2.157c.32-.135.794-.237 1.282-.072 1.884.638 3.45 1.627 4.285 2.3 1.066-.299 3.146-.685 5.438.013l.014.005.015.005c.626.212 1.523.955 1.263 2.12-.302 1.83-.692 3.45-.975 4.354.583.8 1.48 2.233 2.025 4.292.137.347.116.677.053.931-.057.232-.16.442-.214.55l-.01.02a1.658 1.658 0 01-1.434.924c-1.96.206-4.236.239-5.343.244-.741.943-2.001 2.265-3.688 3.66A1.917 1.917 0 019.994 22c-.306 0-.612-.055-.908-.227a2.423 2.423 0 01-.504-.415l-.023-.023-.034-.034-.03-.038c-1.51-1.862-1.978-3.827-2.16-4.808a9.391 9.391 0 01-.636-.332 2.433 2.433 0 01-.26-.174 54.774 54.774 0 00-.227-.135c-.623-.372-1.605-.96-2.58-1.73l-.05-.038L2.54 14c-.499-.506-.782-1.486-.269-2.311 1.207-2.186 3.06-3.396 3.907-3.946.146-.945.478-2.872 1.482-4.8.208-.412.595-.661.892-.787zM6.49 7.541l-.005.002.004-.002z"/></svg>
